X:10
T:Hey Johnnie, Seconds
R:Strathspey
L:1/8
C:Trad
M:C
L:1/8
Q:"114 bpm"
K:D
[| {g}f4 {ag}a4 | f4 c4 [M:5/4]| {g}f4 {ag}a6 [M:4/4] | {g}d>B {g}A>B {Gdc}d2 {gdG}d>A |
{Gdc}d2 {gdG}d>f {g}e>d {g}e<f | {g}d>B {g}A>{d}B {g}B<e {A}e>f | {Gdc}d2 {gdG}d>f {g}e>d {g}e<f | {{g}d>B {g}A>B {Gdc}d2 {gdG}d>B ||
{g}A>B {g}d<f {g}e>d {g}e<f | {g}d>B {g}A>{d}B {g}B<e {A}e2 | {g}A>B {g}d<f {g}e>d {g}e<f | {g}d>B {g}A>B {Gdc}d2 {gdG}d>B
{g}A>B {g}d<f {g}e>d {g}e<f [M:2/4] | {g}d>B {g}A>{d}B [M:C|] "Reel Tempo" | {g}B<(e e4) f2 | {gc}d3 f {g}ed{g}ef | {g}dB{g}AB {g}d2 e2 |]

